src/components/Icon/assets/marker-pen.svg

<svg width="24" height="24" viewBox="0 0 24 24" fill="none" xmlns="http://www.w3.org/2000/svg">
<path fill-rule="evenodd" clip-rule="evenodd" d="M11.9478 13.5051L18.0128 3.00012H20.3228L13.6798 14.5051C13.1388 15.4421 12.1268 15.9801 11.0458 15.9021C10.7518 15.8811 10.4768 16.0531 10.3288 16.3081L8.88781 18.8041L8.48681 19.5001C8.30781 19.8091 7.97781 20.0001 7.61981 20.0001H3.00181C2.23181 20.0001 1.75081 19.1671 2.13581 18.5001L4.19181 14.9381H4.19281L5.13381 13.3081C5.27981 13.0541 5.27881 12.7471 5.13181 12.4961C4.60781 11.5991 4.41481 10.5521 4.93481 9.65212L8.77481 3.00012H11.0848L6.75181 10.5051C6.60481 10.7591 6.60581 11.0651 6.75181 11.3161C7.27481 12.2171 7.46581 13.2681 6.94481 14.1701L6.42481 15.0721L8.15681 16.0721L8.59681 15.3081C9.13781 14.3711 10.1498 13.8331 11.2318 13.9111C11.5258 13.9321 11.7998 13.7611 11.9478 13.5051ZM9.34442 20.0003L11.0774 17.0003H19.3224V20.0003H9.34442Z" fill="#65676A"/>
</svg>

<svg xmlns="http://www.w3.org/2000/svg" width="24" height="24" viewBox="0 0 24 24">
    <path fill="#65676A" fill-rule="evenodd" d="M19.322 17v3H9.344l1.733-3h8.245zM11.085 3l-4.333 7.505c-.147.254-.146.56 0 .811.523.901.714 1.952.193 2.854l-.52.902 1.732 1 .44-.764c.54-.937 1.553-1.475 2.635-1.397.294.021.568-.15.716-.406L18.013 3h2.31L13.68 14.505c-.541.937-1.553 1.475-2.634 1.397-.294-.02-.57.151-.717.406l-1.441 2.496-.401.696c-.18.31-.51.5-.867.5H3.002c-.77 0-1.251-.833-.866-1.5l2.056-3.562.942-1.63c.146-.254.145-.56-.002-.812-.524-.897-.717-1.944-.197-2.844L8.775 3h2.31z"/>
</svg>
